X: 25
of JMB)
M:6/8
L:1/8
K:D
vDFA def|edc dAF|DFA dAF|(ED)D DED|
|:fed (fa)f|(gb)g (fa)f|fed (fa)f|(ge)e eag|
fed (fa)f|(gb)g (fa)f|fed Aeg|fdd d2:|


